svgs/regular/object-exclude.svg

<svg xmlns="http://www.w3.org/2000/svg" viewBox="0 0 512 512"><!--! Font Awesome Pro 6.6.0 by @fontawesome - https://fontawesome.com License - https://fontawesome.com/license (Commercial License) Copyright 2024 Fonticons, Inc. --><path d="M64 48l224 0c8.8 0 16 7.2 16 16l0 64 48 0 0-64c0-35.3-28.7-64-64-64L64 0C28.7 0 0 28.7 0 64L0 288c0 35.3 28.7 64 64 64l64 0 0-48-64 0c-8.8 0-16-7.2-16-16L48 64c0-8.8 7.2-16 16-16zm96 336l0 64c0 35.3 28.7 64 64 64l224 0c35.3 0 64-28.7 64-64l0-224c0-35.3-28.7-64-64-64l-64 0 0 48 64 0c8.8 0 16 7.2 16 16l0 224c0 8.8-7.2 16-16 16l-224 0c-8.8 0-16-7.2-16-16l0-64-48 0zm128-32c35.3 0 64-28.7 64-64l-48 0c0 8.8-7.2 16-16 16l-32 0 0 48 32 0zm64-144l0-48-48 0-16 0 0 48 16 0 0 48 48 0 0-48zM224 352l0-48-16 0 0-48-48 0 0 48 0 48 48 0 16 0zM160 224l48 0c0-8.8 7.2-16 16-16l32 0 0-48-32 0c-35.3 0-64 28.7-64 64z"/></svg>

<svg xmlns="http://www.w3.org/2000/svg" viewBox="0 0 512 512"><!--! Font Awesome Pro 6.4.2 by @fontawesome - https://fontawesome.com License - https://fontawesome.com/license (Commercial License) Copyright 2023 Fonticons, Inc. --><path d="M64 48H288c8.8 0 16 7.2 16 16v64h48V64c0-35.3-28.7-64-64-64H64C28.7 0 0 28.7 0 64V288c0 35.3 28.7 64 64 64h64V304H64c-8.8 0-16-7.2-16-16V64c0-8.8 7.2-16 16-16zm96 336v64c0 35.3 28.7 64 64 64H448c35.3 0 64-28.7 64-64V224c0-35.3-28.7-64-64-64H384v48h64c8.8 0 16 7.2 16 16V448c0 8.8-7.2 16-16 16H224c-8.8 0-16-7.2-16-16V384H160zm128-32c35.3 0 64-28.7 64-64H304c0 8.8-7.2 16-16 16H256v48h32zm64-144V160H304 288v48h16v48h48V208zM224 352l0-48H208V256H160v48 48h48 16zM160 224h48c0-8.8 7.2-16 16-16h32V160H224c-35.3 0-64 28.7-64 64z"/></svg>
